Obsidian/status/16s/mullvady.svg

<svg height="16" width="16" xmlns="http://www.w3.org/2000/svg"><path d="m4.5 2c-1.1261999 0-2.5 1.15785-2.5 2.59375 0 .6178.216172 1.413275.5761719 1.859375.0793.2032-.00171.3711156-.00391.4160156-.0076.1531.325803.218586 1.2207032-.070312 1.6206109-.6377015 2.6781349-1.5501286 3.2070349-2.7988286l1 .0078125v-1.0078125h-1c0-.7332-1.3738-1-2.5-1zm7.5 1c-.552285 0-1 .4477153-1 1s.447715 1 1 1 1-.4477153 1-1-.447715-1-1-1zm-3 1v.00781c-.000039.5553269-.4525022 1.0042825-1.0078125 1l-.5234375-.0039038c-.7209918 1.1817173-1.8020728 2.1329831-3.3105469 2.7265626-.019303.0077692-.0388437.0149342-.0585937.0214843-.4197293.1355013-.7419674.2027795-1.0605469.2265625-.1934588 1.0408564-.5025972 2.3222674-1.0390625 3.0214844 0 0 2.668-.0084 4 0h3c-.253-1.092-2.0938997-3.0235 0-3l-.0117188-.5c.5923523-.5943607 1.3346398-1.1784911 1.9667968-1.7988281-.592099-.3628009-.953635-1.0067628-.955078-1.7011719-.121986.000267-.1714137-.00141-.2929688 0-.5160157.00602-.4373861.000864-.7070312 0zm-3 3c1.4074001.031573 2 1 2 1h-2zm6.021484 1.9785156v1.2929684l-.914062-.9140621-.707031.7070311.914062.914063h-1.292969v1h1.292969l-.914062.914062.707031.707031.914062-.914062v1.292969h1v-1.292969l.914063.914062.707031-.707031-.914062-.914062h1.292968v-1h-1.292968l.914062-.914063-.707031-.7070311-.914063.9140621v-1.2929684zm-.021484 2.0214844h1v1h-1z" fill="#d3dae3"/></svg>

<svg xmlns="http://www.w3.org/2000/svg" width="16" height="16" version="1.1">
 <defs>
  <style id="current-color-scheme" type="text/css">
   .ColorScheme-Text { color:#d3dae3; } .ColorScheme-Highlight { color:#5294e2; }
  </style>
 </defs>
 <path style="fill:currentColor" class="ColorScheme-Text" d="M 4.5,2 C 3.3738001,2 2,3.15785 2,4.59375 c 0,0.6178 0.216172,1.413275 0.5761719,1.859375 0.0793,0.2032 -0.00171,0.3711156 -0.00391,0.4160156 -0.0076,0.1531 0.325803,0.218586 1.2207032,-0.070312 C 5.413576,6.1611271 6.4711,5.2487 7,4 L 8,4.0078125 8,3 7,3 C 7,2.2668 5.6262,2 4.5,2 Z M 12,3 c -0.552285,0 -1,0.4477153 -1,1 0,0.5522847 0.447715,1 1,1 0.552285,0 1,-0.4477153 1,-1 0,-0.5522847 -0.447715,-1 -1,-1 z m -3,1 0,0.00781 c -3.9e-5,0.5553269 -0.4525022,1.0042825 -1.0078125,1 L 7.46875,5.0039062 C 6.7477582,6.1856235 5.6666772,7.1368893 4.1582031,7.7304688 4.1389001,7.738238 4.1193594,7.745403 4.0996094,7.7519531 3.6798801,7.8874544 3.357642,7.9547326 3.0390625,7.9785156 2.8456037,9.019372 2.5364653,10.300783 2,11 c 0,0 2.668,-0.0084 4,0 l 3,0 C 8.747,9.908 6.9061003,7.9765 9,8 L 8.9882812,7.5 C 9.5806335,6.9056393 10.322921,6.3215089 10.955078,5.7011719 10.362979,5.338371 10.001443,4.6944091 10,4 9.878014,4.000267 9.8285863,3.99859 9.7070312,4 9.1910155,4.00602 9.2696451,4.000864 9,4 Z M 6,7 C 7.4074001,7.031573 8,8 8,8 L 6,8 Z m 6.021484,1.9785156 0,1.2929684 -0.914062,-0.9140621 -0.707031,0.7070311 0.914062,0.914063 -1.292969,0 0,1 1.292969,0 -0.914062,0.914062 0.707031,0.707031 0.914062,-0.914062 0,1.292969 1,0 0,-1.292969 0.914063,0.914062 0.707031,-0.707031 -0.914062,-0.914062 1.292968,0 0,-1 -1.292968,0 0.914062,-0.914063 -0.707031,-0.7070311 -0.914063,0.9140621 0,-1.2929684 z M 12,11 l 1,0 0,1 -1,0 z"/>
</svg>
